X: 23
T: Corps digne / Dieu quel mariage
N: Derived from Bus3016-Corps_digne__Dieu_quel_mariage.krn
C: Antoine Busnoys
%%abc-version 2.0
%%abcx-abcm2ps-target-version 5.9.1 (29 Sep 2008)
%%abc-creator hum2abc beta
%%abcx-conversion-date 2019/02/16 20:26:07
%%abc-edited-by Jesse Rodin
%%abc-edited-by Chris Gage 04-20-2015
%%abcx-initial-encoding-date 2015/05/01/
%%humdrum-veritas 4277007690
%%humdrum-veritas-data 1601102796
%%linebreak <none>
%%barnumbers 0
L: 1/4
M: 2/1
Q: 1/2=120
%%staves [1 2 3 4]
V: 1 clef=treble
V: 2 clef=treble-8
V: 3 clef=treble-8
V: 4 clef=bass
K: C
[V:1] c8- | 
[V:2] g8 | 
[V:3] z8 | 
[V:4] C4C4 | 
[V:1] c4A4 | 
[V:2] f4f4- | 
[V:3] z8 | 
[V:4] A,4F,4 | 
[V:1] _B8 | 
[V:2] f4e4 | 
[V:3] z8 | 
[V:4] G,8 | 
[V:1] A8 | 
[V:2] f8- | 
[V:3] c4c4 | 
[V:4] F,8- | 
[V:1] F4F4- | 
[V:2] f8 | 
[V:3] A4F4 | 
[V:4] F,4D,4 | 
[V:1] F4E4 | 
[V:2] z8 | 
[V:3] G4G4 | 
[V:4] C,8 | 
[V:1] F6G2 | 
[V:2] c4c4 | 
[V:3] F8 | 
[V:4] z8 | 
[V:1] A4c4 | 
[V:2] A4F4 | 
[V:3] c6d2 | 
[V:4] z8 | 
[V:1] _B2B4G2 | 
[V:2] G8 | 
[V:3] e4e4 | 
[V:4] z8 | 
[V:1] A8 | 
[V:2] F8 | 
[V:3] f8 | 
[V:4] D,8 | 
[V:1] z4c4- | 
[V:2] c6d2 | 
[V:3] e8 | 
[V:4] C,4A,,4- | 
[V:1] c2_B2G4 | 
[V:2] e4e4 | 
[V:3] z8 | 
[V:4] A,,2_B,,2C,2B,,C, | 
[V:1] F4D4 | 
[V:2] f8 | 
[V:3] d4d4 | 
[V:4] D,2_B,,4A,,2 | 
[V:1] z4G4 | 
[V:2] e4z4 | 
[V:3] c4c4 | 
[V:4] C,8 | 
[V:1] F3GA2A2- | 
[V:2] d4d4 | 
[V:3] d6c_B | 
[V:4] z4F,4- | 
[V:1] A2GFE4 | 
[V:2] c4c4 | 
[V:3] A8 | 
[V:4] F,2G,2A,4 | 
[V:1] D2F3GA2- | 
[V:2] d6c_B | 
[V:3] z8 | 
[V:4] D,4F,4- | 
[V:1] A2G2F2ED | 
[V:2] A4z4 | 
[V:3] z4A4 | 
[V:4] F,2E,2D,4 | 
[V:1] E6F2 | 
[V:2] z8 | 
[V:3] c4c4 | 
[V:4] C,6D,2 | 
[V:1] G4A4- | 
[V:2] z8 | 
[V:3] c8 | 
[V:4] E,4F,4- | 
[V:1] A2F2_B4- | 
[V:2] z8 | 
[V:3] d8 | 
[V:4] F,2D,2G,4- | 
[V:1] B2G2c4- | 
[V:2] z8 | 
[V:3] e8 | 
[V:4] G,2E,2A,4- | 
[V:1] c2A4GF | 
[V:2] z8 | 
[V:3] f6ed | 
[V:4] A,2F,2A,3B, | 
[V:1] E2A3Bc2 | 
[V:2] z8 | 
[V:3] c8 | 
[V:4] C2A,3G,F,E, | 
[V:1] d2A3Bc2- | 
[V:2] z8 | 
[V:3] f8 | 
[V:4] D,2F,3G,A,2- | 
[V:1] cBG2A2_B2- | 
[V:2] z8 | 
[V:3] e4d4 | 
[V:4] A,G,E,3F,G,2- | 
[V:1] BAF2G2A2 | 
[V:2] z8 | 
[V:3] d4c4 | 
[V:4] G,F,D,2E,2F,2 | 
[V:1] _BAGFG4 | 
[V:2] z8 | 
[V:3] _B8 | 
[V:4] G,F,E,D,E,2D,E, | 
[V:1] A8 | 
[V:2] z4A4 | 
[V:3] A4z4 | 
[V:4] F,4z4 | 
[V:1] z4A4 | 
[V:2] c4c4 | 
[V:3] z8 | 
[V:4] A,4F,2A,2- | 
[V:1] A4G4 | 
[V:2] c8 | 
[V:3] z8 | 
[V:4] A,2G,F,E,4 | 
[V:1] F3GA2_B2- | 
[V:2] d8 | 
[V:3] z8 | 
[V:4] D,3E,F,D,G,2 | 
[V:1] B2c3=BG2 | 
[V:2] e8 | 
[V:3] z8 | 
[V:4] z2A,3B,CA, | 
[V:1] F4D4 | 
[V:2] f6ed | 
[V:3] z8 | 
[V:4] D2A,2D2F2 | 
[V:1] A,4z2A2- | 
[V:2] c8 | 
[V:3] z8 | 
[V:4] E6A,2- | 
[V:1] A2D2A2F2 | 
[V:2] f8 | 
[V:3] z8 | 
[V:4] A,2B,2A,2D2- | 
[V:1] G4F4- | 
[V:2] e4d4 | 
[V:3] z8 | 
[V:4] D2^C2D2B,2- | 
[V:1] F2EDE3F | 
[V:2] d4c4 | 
[V:3] z8 | 
[V:4] B,A,B,2C2A,2- | 
[V:1] G2FED4 | 
[V:2] _B8 | 
[V:3] z8 | 
[V:4] A,2G,2G,2F,2 | 
[V:1] C6E2- | 
[V:2] A8 | 
[V:3] z8 | 
[V:4] A,4A,4- | 
[V:1] E2F2G4 | 
[V:2] z8 | 
[V:3] c4c4 | 
[V:4] A,2G,2E,4 | 
[V:1] C4F4- | 
[V:2] z8 | 
[V:3] A4F4 | 
[V:4] F,4D,4 | 
[V:1] F2E2E2D2 | 
[V:2] z8 | 
[V:3] G8 | 
[V:4] C,8 | 
[V:1] F8 | 
[V:2] c4c4 | 
[V:3] F8 | 
[V:4] z8 | 
[V:1] z8 | 
[V:2] A4F4 | 
[V:3] c6d2 | 
[V:4] F,8 | 
[V:1] z8 | 
[V:2] G8 | 
[V:3] e4e4 | 
[V:4] C,8 | 
[V:1] A8 | 
[V:2] F8 | 
[V:3] f8 | 
[V:4] D,8 | 
[V:1] A4c4- | 
[V:2] c6d2 | 
[V:3] e8 | 
[V:4] A,,6B,,2 | 
[V:1] c2B2G4 | 
[V:2] e4e4 | 
[V:3] z8 | 
[V:4] C,8 | 
[V:1] F4A4- | 
[V:2] f8 | 
[V:3] d4d4 | 
[V:4] D,8 | 
[V:1] A2G2E4 | 
[V:2] e4z4 | 
[V:3] c4c4 | 
[V:4] A,8 | 
[V:1] F4D4 | 
[V:2] d4d4 | 
[V:3] d6c_B | 
[V:4] D,8 | 
[V:1] E4z4 | 
[V:2] c4c4 | 
[V:3] A8 | 
[V:4] z4A,4 | 
[V:1] D2F4G2 | 
[V:2] d6c_B | 
[V:3] z8 | 
[V:4] _B,6A,G, | 
[V:1] A2GFE2A2- | 
[V:2] A8 | 
[V:3] c4c4 | 
[V:4] F,4C,2F,2- | 
[V:1] ABc4BA | 
[V:2] z8 | 
[V:3] A4F4 | 
[V:4] F,G,A,4G,F, | 
[V:1] G2F4E2 | 
[V:2] c4c4 | 
[V:3] G8 | 
[V:4] E,2D,2C,4 | 
[V:1] F6c2- | 
[V:2] A4F4 | 
[V:3] F8 | 
[V:4] D,4F,4 | 
[V:1] cBG3FA2- | 
[V:2] G8 | 
[V:3] c4c4 | 
[V:4] C,8 | 
[V:1] AGF3EDC | 
[V:2] F8 | 
[V:3] A4F4 | 
[V:4] D,8 | 
[V:1] DEF3EED | 
[V:2] c8 | 
[V:3] G8 | 
[V:4] C,8 | 
[V:1] F8 |]  
[V:2] c8 |]  
[V:3] F8 |]  
[V:4] F,8 |]  



